svgs/child_growth_tracker.svg

<svg xmlns="http://www.w3.org/2000/svg" viewBox="0 0 192 192"><path d="M54.086 169.613c-13.277-3.143-24.226-8.856-31.885-16.635-2.753-2.795-5.374-5.772-5.825-6.614-1.003-1.875-1.566-1.744 19.922-4.624 8.851-1.186 17.142-2.37 18.423-2.631 1.749-.356 2.329-.144 2.329.848 0 2.298 3.944 2.446 15.05.565 12.137-2.055 14.597-2.847 14.597-4.699 0-.709.286-1.287.635-1.285.35.003 7.631-.999 16.18-2.224 13.55-1.943 15.971-2.089 18.869-1.132 3.066 1.012 3.529.946 5.948-.842 2.21-1.635 5.767-2.377 22.636-4.725 27.87-3.879 25.147-3.742 24.811-1.245-.445 3.299-5.802 15.196-9.046 20.088-8.436 12.72-21.5 21.106-39.129 25.115-8.308 1.89-65.571 1.921-73.515.04Zm2.49-32.92c-2.076-3.169-.901-5.389 3.431-6.48l3.688-.929-2.887-2.534c-4.786-4.203-5.939-12.663-2.451-17.986 2.467-3.766 8.285-5.988 28.917-11.046 15.234-3.735 20.005-4.613 21.3-3.92 1.072.573 2.834 4.117 4.93 9.916l3.263 9.023 6.141 4.148c5.286 3.57 6.142 4.494 6.142 6.634 0 2.702-1.902 4.239-5.245 4.239-3.192 0-14.845-8.959-16.074-12.357-.575-1.589-1.355-2.89-1.734-2.89-.658 0-22.727 10.847-23.468 11.535-.196.182.471 1.211 1.483 2.288 2.087 2.222 2.413 5.822.657 7.279-1.008.836-22.496 5.157-25.649 5.157-.596 0-1.696-.935-2.444-2.077Zm6.592-16.508c-.272-1.854.189-3.046 1.802-4.659 3.15-3.15 6.761-2.904 10.37.705 2.43 2.431 2.814 2.594 2.49 1.059a562.33 562.33 0 0 1-1.324-6.686c-.908-4.698-1.022-4.852-3.21-4.338-10.997 2.582-14.742 7.657-11.016 14.927 1.079 2.106 1.307 1.847.888-1.008Zm53.506-25.451c-6.032-1.364-9.64-5.969-9.63-12.293.009-5.147 1.156-7.545 5.152-10.765 5.535-4.46 14.371-3.06 18.883 2.992 2.587 3.472 2.49 11.015-.19 14.774-3.138 4.4-8.815 6.513-14.215 5.292Zm-85.279-5.758c-2.195-2.228-3.991-4.424-3.991-4.877 0-1.073 35.758-36.811 36.831-36.811.449 0 3.122 2.285 5.94 5.078l5.123 5.078 10.13-10.157 10.13-10.156 6.165 6.124 6.166 6.124 7.814-7.814 7.814-7.814-6.337-6.379-6.337-6.379 16.939.23 16.938.231.297 2.541c.163 1.397.025 8.778-.306 16.401l-.603 13.86-5.64-5.596-5.639-5.597-12.251 12.273-12.25 12.273-6.161-6.12-6.16-6.119-10.121 10.094-10.121 10.095-5.828-5.18-5.828-5.18-13.896 13.915c-7.643 7.653-14.105 13.915-14.361 13.915-.256 0-2.261-1.824-4.457-4.053Z"/></svg>

<svg
    xmlns="http://www.w3.org/2000/svg"
    viewBox="0 0 192 192"
    id="vector">
    <g id="group">
        <path
            id="path_6"
            d="M 54.086 169.613 C 40.809 166.47 29.86 160.757 22.201 152.978 C 19.448 150.183 16.827 147.206 16.376 146.364 C 15.373 144.489 14.81 144.62 36.298 141.74 C 45.149 140.554 53.44 139.37 54.721 139.109 C 56.47 138.753 57.05 138.965 57.05 139.957 C 57.05 142.255 60.994 142.403 72.1 140.522 C 84.237 138.467 86.697 137.675 86.697 135.823 C 86.697 135.114 86.983 134.536 87.332 134.538 C 87.682 134.541 94.963 133.539 103.512 132.314 C 117.062 130.371 119.483 130.225 122.381 131.182 C 125.447 132.194 125.91 132.128 128.329 130.34 C 130.539 128.705 134.096 127.963 150.965 125.615 C 178.835 121.736 176.112 121.873 175.776 124.37 C 175.331 127.669 169.974 139.566 166.73 144.458 C 158.294 157.178 145.23 165.564 127.601 169.573 C 119.293 171.463 62.03 171.494 54.086 169.613 Z M 56.576 136.693 C 54.5 133.524 55.675 131.304 60.007 130.213 L 63.695 129.284 L 60.808 126.75 C 56.022 122.547 54.869 114.087 58.357 108.764 C 60.824 104.998 66.642 102.776 87.274 97.718 C 102.508 93.983 107.279 93.105 108.574 93.798 C 109.646 94.371 111.408 97.915 113.504 103.714 L 116.767 112.737 L 122.908 116.885 C 128.194 120.455 129.05 121.379 129.05 123.519 C 129.05 126.221 127.148 127.758 123.805 127.758 C 120.613 127.758 108.96 118.799 107.731 115.401 C 107.156 113.812 106.376 112.511 105.997 112.511 C 105.339 112.511 83.27 123.358 82.529 124.046 C 82.333 124.228 83 125.257 84.012 126.334 C 86.099 128.556 86.425 132.156 84.669 133.613 C 83.661 134.449 62.173 138.77 59.02 138.77 C 58.424 138.77 57.324 137.835 56.576 136.693 Z M 63.168 120.185 C 62.896 118.331 63.357 117.139 64.97 115.526 C 68.12 112.376 71.731 112.622 75.34 116.231 C 77.77 118.662 78.154 118.825 77.83 117.29 C 77.619 116.292 77.023 113.284 76.506 110.604 C 75.598 105.906 75.484 105.752 73.296 106.266 C 62.299 108.848 58.554 113.923 62.28 121.193 C 63.359 123.299 63.587 123.04 63.168 120.185 Z M 116.674 94.734 C 110.642 93.37 107.034 88.765 107.044 82.441 C 107.053 77.294 108.2 74.896 112.196 71.676 C 117.731 67.216 126.567 68.616 131.079 74.668 C 133.666 78.14 133.569 85.683 130.889 89.442 C 127.751 93.842 122.074 95.955 116.674 94.734 Z M 31.395 88.976 C 29.2 86.748 27.404 84.552 27.404 84.099 C 27.404 83.026 63.162 47.288 64.235 47.288 C 64.684 47.288 67.357 49.573 70.175 52.366 L 75.298 57.444 L 85.428 47.287 L 95.558 37.131 L 101.723 43.255 L 107.889 49.379 L 115.703 41.565 L 123.517 33.751 L 117.18 27.372 L 110.843 20.993 L 127.782 21.223 L 144.72 21.454 L 145.017 23.995 C 145.18 25.392 145.042 32.773 144.711 40.396 L 144.108 54.256 L 138.468 48.66 L 132.829 43.063 L 120.578 55.336 L 108.328 67.609 L 102.167 61.489 L 96.007 55.37 L 85.886 65.464 L 75.765 75.559 L 69.937 70.379 L 64.109 65.199 L 50.213 79.114 C 42.57 86.767 36.108 93.029 35.852 93.029 C 35.596 93.029 33.591 91.205 31.395 88.976 Z"
            fill="#000000"
            stroke-width="12"/>
    </g>
</svg>
